icons/tag-star-outline.svg

<svg xmlns="http://www.w3.org/2000/svg" width="24" height="24" viewBox="0 0 24 24">
  <path d="M13,2 C13.2652165,2 13.5195704,2.10535684 13.7071068,2.29289322 L13.7071068,2.29289322 L21.2928932,9.87867966 C22.4644661,11.0502525 22.4644661,12.9497475 21.2928932,14.1213203 L21.2928932,14.1213203 L14.1213203,21.2928932 C12.9497475,22.4644661 11.0502525,22.4644661 9.87867966,21.2928932 L9.87867966,21.2928932 L2.29289322,13.7071068 C2.10535684,13.5195704 2,13.2652165 2,13 L2,13 L2,5 C2,3.34314575 3.34314575,2 5,2 L5,2 Z M12.585,4 L5,4 C4.44771525,4 4,4.44771525 4,5 L4,5 L4,12.585 L11.2928932,19.8786797 C11.6533772,20.2391636 12.2206082,20.2668932 12.6128994,19.9618683 L12.6128994,19.9618683 L12.7071068,19.8786797 L19.8786797,12.7071068 C20.2692039,12.3165825 20.2692039,11.6834175 19.8786797,11.2928932 L19.8786797,11.2928932 L12.585,4 Z M12.2212829,8.18140769 C12.3198892,8.23007281 12.3997029,8.30988657 12.448368,8.40849288 L13.3225168,10.1797118 L15.2771729,10.4637399 C15.5504453,10.5034487 15.7397861,10.7571702 15.7000773,11.0304426 C15.684265,11.1392611 15.6330214,11.2398323 15.5542796,11.3165866 L14.1398772,12.6952882 L14.4737723,14.6420462 C14.5204528,14.9142144 14.3376589,15.1726924 14.0654907,15.2193729 C13.9571118,15.2379613 13.8456278,15.220304 13.7482976,15.1691344 L12,14.25 L10.2517024,15.1691344 C10.0072801,15.2976348 9.70496657,15.2036616 9.57646617,14.9592393 C9.52529663,14.861909 9.50763929,14.750425 9.52622772,14.6420462 L9.86012284,12.6952882 L8.4457204,11.3165866 C8.24797861,11.123836 8.24393246,10.8072794 8.43668307,10.6095376 C8.51343737,10.5307958 8.61400857,10.4795522 8.72282709,10.4637399 L10.6774832,10.1797118 L11.551632,8.40849288 C11.6738431,8.16086605 11.973656,8.05919655 12.2212829,8.18140769 Z"/>
</svg>

<svg xmlns="http://www.w3.org/2000/svg" viewBox="0 0 24 24">
  <path d="M13 2a1 1 0 0 1 .7.3l7.6 7.58a3 3 0 0 1 0 4.24l-7.18 7.17a3 3 0 0 1-4.24 0l-7.59-7.58A1 1 0 0 1 2 13V5a3 3 0 0 1 3-3zm-.41 2H5a1 1 0 0 0-1 1v7.59l7.3 7.29a1 1 0 0 0 1.31.08l.1-.08 7.17-7.17a1 1 0 0 0 0-1.42L12.58 4zm-.37 4.18c.1.05.18.13.23.23l.87 1.77 1.96.28a.5.5 0 0 1 .27.86l-1.41 1.38.33 1.94a.5.5 0 0 1-.72.53L12 14.25l-1.75.92a.5.5 0 0 1-.72-.53l.33-1.94-1.41-1.38a.5.5 0 0 1 .27-.86l1.96-.28.87-1.77a.5.5 0 0 1 .67-.23z"/>
</svg>
